X: 8832
T: Cuil Aodha, The
R: jig
M: 6/8
K: Dmajor
A|:dcA GEA|DED F2 G|AGF GED|CB,A, GFE|
DED DGF|EFE cde|dcA GEA|DED DFA:|
|:A2 d dcd|eAB cde|dcA G2 A|GED CDE|
DFA dcd|eAB cde|dcA GEA|DED D3:|

